X: 1136
T: Rakes of Kildare
T: Galbally Farmer
S: &quot;Roche Collection of Traditional Irish Music II&quot;
N: This next one is another take on the familiar
L: 1/8
M: 6/8
R: jig
K: G Dorian
|: D |\ 
DGG GFG | Add d2 e | fef ded | cAG F2 D |
DGG GFG | Add d2 e | fef dcA | G3 G2 :|
|: g |\ 
gdg gdg | gab a2 g | fef ded | cAG FGA |
B2 B cB/A/G | Add d2 e | fed cAF | G3 G2 :|
